motif/src/controls/boolean/button/icon/svg-button/ng/svg/noun_flip_2063119.svg

<svg height='100px' width='100px' fill="currentcolor" xmlns="http://www.w3.org/2000/svg" viewBox="0 0 16 25" fill="none" x="0px" y="0px"><path fill-rule="evenodd" clip-rule="evenodd" d="M0.115723 12.8203C0.043457 12.7334 0 12.6221 0 12.5C0 12.2236 0.223877 12 0.5 12H3.5C3.64795 12 3.78076 12.0645 3.87231 12.166C3.95166 12.2549 4 12.3721 4 12.5C4 12.7764 3.77612 13 3.5 13H0.5C0.345703 13 0.20752 12.9297 0.115723 12.8203ZM6.5 13C6.22388 13 6 12.7764 6 12.5C6 12.3682 6.05103 12.248 6.13452 12.1592C6.22583 12.0615 6.35571 12 6.5 12H9.5C9.77612 12 10 12.2236 10 12.5C10 12.7764 9.77612 13 9.5 13H6.5ZM12 12.5C12 12.7764 12.2239 13 12.5 13L15.5 13C15.7761 13 16 12.7764 16 12.5C16 12.3711 15.9512 12.2529 15.8711 12.1641C15.7795 12.0635 15.6472 12 15.5 12L12.5 12C12.2239 12 12 12.2236 12 12.5ZM8 0.5C5.79077 0.5 4 2.29102 4 4.5C4 6.70898 5.79077 8.5 8 8.5C10.2092 8.5 12 6.70898 12 4.5C12 2.29102 10.2092 0.5 8 0.5ZM8 17.5C9.65674 17.5 11 18.8428 11 20.5C11 22.1572 9.65674 23.5 8 23.5C6.34326 23.5 5 22.1572 5 20.5C5 18.8428 6.34326 17.5 8 17.5ZM4 20.5C4 18.291 5.79077 16.5 8 16.5C10.2092 16.5 12 18.291 12 20.5C12 22.709 10.2092 24.5 8 24.5C5.79077 24.5 4 22.709 4 20.5Z"></path></svg>

<symbol fill="currentcolor" viewBox="0 0 16 25" id="only" xmlns="http://www.w3.org/2000/svg">
<path fill-rule="evenodd" clip-rule="evenodd" d="M.116 12.82A.499.499 0 0 1 .5 12h3a.5.5 0 1 1 0 1h-3a.501.501 0 0 1-.384-.18ZM6.5 13a.5.5 0 1 1 0-1h3a.5.5 0 1 1 0 1h-3Zm5.5-.5a.5.5 0 0 0 .5.5h3a.5.5 0 1 0 0-1h-3a.5.5 0 0 0-.5.5ZM8 .5a4 4 0 1 0 0 8 4 4 0 0 0 0-8Zm0 17a3 3 0 1 1 0 6 3 3 0 0 1 0-6Zm-4 3a4 4 0 1 1 8 0 4 4 0 0 1-8 0Z"/>
</symbol>
